X:1
T:Title
%%score { 1 | 2 }
L:1/8
M:4/4
K:G
V:1 treble nm="Grand Piano"
V:2 bass 
V:1
 z4 z2[Q:1/4=100] [B,G]>[CA] | [DB]>[DB] [Ec]>[Ec] [DB]2 [DB]>[^DA] | %2
 [EG]>[EA] [EG]>[CE] [B,D]2 [G,B,]>[A,C] | [B,D]>[DG] [DG]>A B2 A>G | %4
 [FA]>[FA] [FA]>[GB] [FA]2 [GB]>[Ac] | d>d d>d B2 [FA]>[GB] | %6
 [Fc]>[Fc] [Fc]>[Fc] [DFA]2 [B,FB]>[B,FA] | [B,EG]>[CEG] [G,DF]>[G,CE] [G,B,D]2 [^CG]>[CGA] | %8
[M:3/4] [DGB]>[DAc] [DGB]>[CFA] [B,G]2 |[M:1/4] [DGB]>[DAc] |[M:4/4] [DBd]>[DBd] e>e d>B G>A | %11
 B>B c>c B2 A>G | [FA]>[FA] [FA]>[GB] [Ac]>[Ac] [GB]>[FA] | B>d d>B [FA]2 [GB]>[Ac] | %14
 [Bd]>[Bd] e>e d>B G>A | B>B c>c B2 B>A | G>[EG] [EG]>[Ge] e>d G>[GA] | %17
[M:3/4] [GB]>[Ac] [GB]>[FA] [B,G]2 |] %18
V:2
 z4 z2 [G,,D,]>[G,,D,] | [G,,G,]>[G,,G,] [G,,G,]>[G,,G,] [G,,G,]2 [G,,G,]>[B,,F,] | %2
 [C,E,]>[C,E,] [C,G,]>[C,G,] [G,,G,]2 [G,,D,]>[G,,D,] | %3
 [G,,G,]>[B,,G,] [B,,G,]>[D,F,D] [G,D]2 [G,CD]>[G,B,D] | %4
 [D,D]>[D,D] [D,D]>[D,D] [D,D]2[K:treble] [G,D]>[G,D] | %5
 [G,B,G]>[G,B,G] [G,B,G]>[G,B,G] [G,DG]2[K:bass] [D,D]>[D,D] | %6
 [D,A,]>[D,A,] [D,A,]>[D,A,] D,2 ^D,>D, | E,>C, C,>C, G,,2 E,>E, |[M:3/4] D,>D, D,>D, G,2 | %9
[M:1/4] G,>G, |[M:4/4] G,>G,[K:treble] [G,CG]>[G,CG] [G,B,G]>[G,DG] [G,B,D]>[G,CD] | %11
 [G,DG]>[G,DG] [G,EG]>[G,EG] [G,DG]2[K:bass] [G,CD]>[G,B,D] | %12
 [D,D]>[D,D] [D,D]>[D,D] [D,D]>[D,D] [D,D]>[D,D] | %13
 [G,DG]>[G,B,G] [G,B,G]>[G,DG][K:bass] [D,D]2 [G,D]>[G,D] | %14
 [G,D]>[G,D][K:treble] [G,CG]>[G,CG] [G,B,G]>[G,DG] [G,B,D]>[G,CD] | %15
 [G,DG]>[G,DG] [G,EG]>[G,EG] [G,DG]2 [B,^DF]>[B,DF] | %16
 [CE]>[K:bass][C,C] [C,C]>[C,C][K:treble] [G,CG]>[G,B,G][K:bass] [E,^C]>[E,C] | %17
[M:3/4] [D,D]>[D,D] [D,D]>[D,C] [G,,G,]2 |] %18

